X: 208
T:Young Huzzar. JC.212
M:3/8
L:1/8
Q:30
S:John Clare,Poet,Helpstone (1793-1864)
R:Waltz
O:England212
A:Northamptonshire
N:
Z:vmp.P. Headford
K:D
A|.A(fe)|(dF).A|(GE).c|df.A|(Af).e|(dF).A|GE.c|d2|!
|F|(GE).c|(df).G|(GE).c|d2F|(GE).c|(df) F|(GE) c|d2A|!
(Af).e|dF.A|(GE).c|(df) A|(Af).e|(dF).A|(GE).c|d2|]
